images/merging-workflows-5.svg

<?xml version="1.0"?>
<svg xmlns="http://www.w3.org/2000/svg" xmlns:xlink="http://www.w3.org/1999/xlink" width="647px" height="220px" viewBox="0 0 647 220" version="1.1">
    <!-- Generator: Sketch 56.3 (81716) - https://sketch.com -->
    <title>images/merging-workflows-5</title>
    <desc>Created with Sketch.</desc>
    <g id="05---Merging-Workflows-5" stroke="none" stroke-width="1" fill="none" fill-rule="evenodd">
        <g id="Line-+-brown-2" transform="translate(6.000000, 66.000000)">
            <g id="brown">
                <rect id="Rectangle-1" fill="#EFEFE7" fill-rule="evenodd" x="0" y="0" width="89" height="33" rx="16.5"/>
                <text stroke="none" font-family="Source Code Pro" font-size="12px" font-weight="700" fill="#979797" fill-opacity="1" text-anchor="middle" id="C6">
                    <tspan fill="#808080" x="44.5" y="21" fill-opacity="1">C1</tspan>
                </text>
            </g>
        </g>
        <path id="Line-4" d="M104,82 L149,82 L149,83 L104,83 L104,87 L95,82.5 L104,78 L104,82 Z" fill="#8F8981" fill-rule="nonzero"/>
        <g id="brown" transform="translate(125.000000, 66.000000)">
            <rect id="Rectangle-1" fill="#EFEFE7" fill-rule="evenodd" x="0" y="0" width="89" height="33" rx="16.5"/>
            <text stroke="none" font-family="Source Code Pro" font-size="12px" font-weight="700" fill="#979797" fill-opacity="1" text-anchor="middle" id="C6">
                <tspan fill="#808080" x="44.5" y="21" fill-opacity="1">C2</tspan>
            </text>
        </g>
        <path id="Line-3" d="M223,82 L268,82 L268,83 L223,83 L223,87 L214,82.5 L223,78 L223,82 Z" fill="#8F8981" fill-rule="nonzero"/>
        <g id="brown" transform="translate(244.000000, 66.000000)">
            <rect id="Rectangle-1" fill="#EFEFE7" fill-rule="evenodd" x="0" y="0" width="89" height="33" rx="16.5"/>
            <text stroke="none" font-family="Source Code Pro" font-size="12px" font-weight="700" fill="#979797" fill-opacity="1" text-anchor="middle" id="C6">
                <tspan fill="#808080" x="44.5" y="21" fill-opacity="1">C5</tspan>
            </text>
        </g>
        <g id="Line-+-brown-5" transform="translate(209.000000, 94.000000)">
            <path id="Line" d="M7.83266063,4.82805823 L59.1939201,39.3640775 L58.6359225,40.1939201 L7.27466304,5.6579008 L5.04267269,8.97727107 L0.0850787153,0.221001205 L10.064651,1.50868795 L7.83266063,4.82805823 Z" fill="#8F8981" fill-rule="nonzero"/>
            <g id="brown" transform="translate(35.000000, 23.000000)">
                <rect id="Rectangle-1" fill="#EFEFE7" fill-rule="evenodd" x="0" y="0" width="89" height="33" rx="16.5"/>
                <text stroke="none" font-family="Source Code Pro" font-size="12px" font-weight="700" fill="#979797" fill-opacity="1" text-anchor="middle" id="C6">
                    <tspan fill="#808080" x="44.5" y="21" fill-opacity="1">C3</tspan>
                </text>
            </g>
        </g>
        <g id="Line-5-+-brown-5" transform="translate(333.000000, 117.000000)">
            <path id="Line-5" d="M9,16 L54,16 L54,17 L9,17 L9,21 L0,16.5 L9,12 L9,16 Z" fill="#8F8981" fill-rule="nonzero"/>
            <g id="brown" transform="translate(30.000000, 0.000000)">
                <rect id="Rectangle-1" fill="#EFEFE7" fill-rule="evenodd" x="0" y="0" width="89" height="33" rx="16.5"/>
                <text stroke="none" font-family="Source Code Pro" font-size="12px" font-weight="700" fill="#979797" fill-opacity="1" text-anchor="middle" id="C6">
                    <tspan fill="#808080" x="44.5" y="21" fill-opacity="1">C4</tspan>
                </text>
            </g>
        </g>
        <path id="Line-7" d="M343,82 L506,82 L506,83 L343,83 L343,87 L334,82.5 L343,78 L343,82 Z" fill="#8F8981" fill-rule="nonzero"/>
        <path id="Line-6" d="M456.062965,118.075288 L505.608062,81.8011992 L506.198801,82.608062 L456.653703,118.882151 L459.016659,122.109602 L449.096569,123.795369 L453.700009,114.847837 L456.062965,118.075288 Z" fill="#8F8981" fill-rule="nonzero"/>
        <g id="brown" transform="translate(481.000000, 66.000000)">
            <rect id="Rectangle-1" fill="#EFEFE7" fill-rule="evenodd" x="0" y="0" width="89" height="33" rx="16.5"/>
            <text stroke="none" font-family="Source Code Pro" font-size="12px" font-weight="700" fill="#979797" fill-opacity="1" text-anchor="middle" id="C6">
                <tspan fill="#808080" x="44.5" y="21" fill-opacity="1">C6</tspan>
            </text>
        </g>
        <g id="Line-2-+-ref" transform="translate(547.000000, 9.000000)">
            <path id="Line-2" d="M9.1377574,48.404184 L26.2170572,4.85196964 L27.1480304,5.21705717 L10.0687306,48.7692716 L13.7926234,50.2296217 L6.31745624,56.9654866 L5.4138646,46.9438339 L9.1377574,48.404184 Z" fill="#8F8981" fill-rule="nonzero"/>
            <g id="ref">
                <rect id="Rectangle-2" fill="#F44D27" fill-rule="evenodd" x="0" y="0" width="74.2990654" height="33"/>
                <text stroke="none" font-family="Source Code Pro" font-size="12px" font-weight="700" fill="#979797" fill-opacity="1" text-anchor="middle" id="master">
                    <tspan fill="#f0f0f0" x="37.1495327" y="20" fill-opacity="1">develop</tspan>
                </text>
            </g>
        </g>
        <g id="Line-2-+-ref-4" transform="translate(449.000000, 9.000000)">
            <path id="Line-2" d="M47.4935571,47.986784 L27.836802,5.25470758 L28.7452924,4.83680197 L48.4020476,47.5688783 L52.0360094,45.8972559 L51.7089528,55.9542452 L43.8595953,49.6584064 L47.4935571,47.986784 Z" fill="#8F8981" fill-rule="nonzero"/>
            <g id="ref">
                <rect id="Rectangle-2" fill="#F44D27" fill-rule="evenodd" x="0" y="0" width="78.2616822" height="33"/>
                <text stroke="none" font-family="Source Code Pro" font-size="12px" font-weight="700" fill="#979797" fill-opacity="1" text-anchor="middle" id="master">
                    <tspan fill="#f0f0f0" x="39.1308411" y="20" fill-opacity="1">master</tspan>
                </text>
            </g>
        </g>
        <g id="Line-2-+-ref-2" transform="translate(365.000000, 150.000000)">
            <path id="Line-2" d="M43,9 L43,41 L42,41 L42,9 L38,9 L42.5,0 L47,9 L43,9 Z" fill="#8F8981" fill-rule="nonzero"/>
            <g id="ref" transform="translate(0.000000, 24.000000)">
                <rect id="Rectangle-2" fill="#F44D27" fill-rule="evenodd" x="0" y="0" width="106" height="33"/>
                <text stroke="none" font-family="Source Code Pro" font-size="12px" font-weight="700" fill="#979797" fill-opacity="1" text-anchor="middle" id="master">
                    <tspan fill="#f0f0f0" x="53" y="20" fill-opacity="1">ruby_client</tspan>
                </text>
            </g>
        </g>
    </g>
</svg>

<?xml version="1.0" encoding="UTF-8"?>
<svg id="svg12349" version="1.1" viewBox="0 0 621 206" xmlns="http://www.w3.org/2000/svg" xmlns:cc="http://creativecommons.org/ns#" xmlns:dc="http://purl.org/dc/elements/1.1/" xmlns:rdf="http://www.w3.org/1999/02/22-rdf-syntax-ns#">
 <metadata id="metadata12355">
  <rdf:RDF>
   <cc:Work rdf:about="">
    <dc:format>image/svg+xml</dc:format>
    <dc:type rdf:resource="http://purl.org/dc/dcmitype/StillImage"/>
    <dc:title>images/merging-workflows-5</dc:title>
   </cc:Work>
  </rdf:RDF>
 </metadata>
 <!-- Generator: Sketch 56.3 (81716) - https://sketch.com -->
 <title id="title12261">images/merging-workflows-5</title>
 <desc id="desc12263">Created with Sketch.</desc>
 <g id="g12558" transform="translate(-2,-5)">
  <g id="Line-+-brown-2" transform="translate(6,66)" style="fill-rule:evenodd;fill:none">
   <g id="brown">
    <rect id="Rectangle-1" width="89" height="33" rx="16.5" ry="16.5" style="fill-rule:evenodd;fill:#efefe7"/>
    <text id="C6" font-size="12px" font-weight="700" style="fill:#979797;font-family:'Source Code Pro';font-size:12px;font-weight:700;text-anchor:middle"><tspan id="tspan12266" x="44.5" y="21" style="fill:gray">C1</tspan></text>
   </g>
  </g>
  <path id="Line-4" d="m104 82h45v1h-45v4l-9-4.5 9-4.5z" style="fill:#8f8981"/>
  <g id="g12278" transform="translate(125,66)" style="fill-rule:evenodd;fill:none">
   <rect id="rect12272" width="89" height="33" rx="16.5" ry="16.5" style="fill-rule:evenodd;fill:#efefe7"/>
   <text id="text12276" font-size="12px" font-weight="700" style="fill:#979797;font-family:'Source Code Pro';font-size:12px;font-weight:700;text-anchor:middle"><tspan id="tspan12274" x="44.5" y="21" style="fill:gray">C2</tspan></text>
  </g>
  <path id="Line-3" d="m223 82h45v1h-45v4l-9-4.5 9-4.5z" style="fill:#8f8981"/>
  <g id="g12287" transform="translate(244,66)" style="fill-rule:evenodd;fill:none">
   <rect id="rect12281" width="89" height="33" rx="16.5" ry="16.5" style="fill-rule:evenodd;fill:#efefe7"/>
   <text id="text12285" font-size="12px" font-weight="700" style="fill:#979797;font-family:'Source Code Pro';font-size:12px;font-weight:700;text-anchor:middle"><tspan id="tspan12283" x="44.5" y="21" style="fill:gray">C5</tspan></text>
  </g>
  <g id="Line-+-brown-5" transform="translate(209,94)" style="fill-rule:evenodd;fill:none">
   <path id="Line" d="m7.8327 4.8281 51.361 34.536-.558.82984-51.361-34.536-2.232 3.3194-4.9576-8.7563 9.9796 1.2877z" style="fill-rule:nonzero;fill:#8f8981"/>
   <g id="g12296" transform="translate(35,23)">
    <rect id="rect12290" width="89" height="33" rx="16.5" ry="16.5" style="fill-rule:evenodd;fill:#efefe7"/>
    <text id="text12294" font-size="12px" font-weight="700" style="fill:#979797;font-family:'Source Code Pro';font-size:12px;font-weight:700;text-anchor:middle"><tspan id="tspan12292" x="44.5" y="21" style="fill:gray">C3</tspan></text>
   </g>
  </g>
  <g id="Line-5-+-brown-5" transform="translate(333,117)" style="fill-rule:evenodd;fill:none">
   <path id="Line-5" d="m9 16h45v1h-45v4l-9-4.5 9-4.5z" style="fill-rule:nonzero;fill:#8f8981"/>
   <g id="g12306" transform="translate(30)">
    <rect id="rect12300" width="89" height="33" rx="16.5" ry="16.5" style="fill-rule:evenodd;fill:#efefe7"/>
    <text id="text12304" font-size="12px" font-weight="700" style="fill:#979797;font-family:'Source Code Pro';font-size:12px;font-weight:700;text-anchor:middle"><tspan id="tspan12302" x="44.5" y="21" style="fill:gray">C4</tspan></text>
   </g>
  </g>
  <path id="Line-7" d="m343 82h163v1h-163v4l-9-4.5 9-4.5z" style="fill:#8f8981"/>
  <path id="Line-6" d="m456.06 118.08 49.545-36.274.59074.80686-49.545 36.274 2.363 3.2274-9.9201 1.6858 4.6034-8.9475z" style="fill:#8f8981"/>
  <g id="g12317" transform="translate(481,66)" style="fill-rule:evenodd;fill:none">
   <rect id="rect12311" width="89" height="33" rx="16.5" ry="16.5" style="fill-rule:evenodd;fill:#efefe7"/>
   <text id="text12315" font-size="12px" font-weight="700" style="fill:#979797;font-family:'Source Code Pro';font-size:12px;font-weight:700;text-anchor:middle"><tspan id="tspan12313" x="44.5" y="21" style="fill:gray">C6</tspan></text>
  </g>
  <g id="g12505">
   <path id="path12326-0" transform="matrix(-.94957 -.31357 -.31357 .94957 609.36 39.027)" d="m41.542 35.599-13.705-30.345.90849-.41791 13.705 30.345 3.634-1.6716-.32706 10.057-7.8494-6.2958z" style="fill:#8f8981"/>
   <g id="g12454" transform="translate(-17)">
    <rect id="Rectangle-2" transform="matrix(1.1979 0 0 1 547 9)" width="74.299" height="33" style="fill-rule:evenodd;fill:#f44d27"/>
    <text id="master" transform="translate(554.35 8.602)" font-size="12px" font-weight="700" style="fill-rule:evenodd;fill:#979797;font-family:'Source Code Pro';font-size:12px;font-weight:700;text-anchor:middle"><tspan id="tspan12321" x="37.149532" y="20" style="fill:#f0f0f0">develop</tspan></text>
   </g>
  </g>
  <g id="g12498">
   <path id="path12326" transform="rotate(-18.274 342.24 -1352.8)" d="m41.542 35.599-13.705-30.345.90849-.41791 13.705 30.345 3.634-1.6716-.32706 10.057-7.8494-6.2958z" style="fill:#8f8981"/>
   <g id="g12441" transform="translate(-17)">
    <rect id="rect12328" transform="matrix(1.1372 0 0 1 449 9)" width="78.262" height="33" style="fill-rule:evenodd;fill:#f44d27"/>
    <text id="text12332" transform="translate(454.47 9.316)" font-size="12px" font-weight="700" style="fill-rule:evenodd;fill:#979797;font-family:'Source Code Pro';font-size:12px;font-weight:700;text-anchor:middle"><tspan id="tspan12330" x="39.13084" y="20" style="fill:#f0f0f0">master</tspan></text>
   </g>
  </g>
  <g id="g12428">
   <path id="path12337" transform="translate(365,150)" d="m43 9v32h-1v-32h-4l4.5-9 4.5 9z" style="fill:#8f8981"/>
   <g id="g12421">
    <rect id="rect12339" transform="matrix(.83962 0 0 1 363 174)" width="106" height="33" style="fill-rule:evenodd;fill:#f44d27"/>
    <text id="text12343" transform="translate(354.1 173.87)" font-size="12px" font-weight="700" style="fill-rule:evenodd;fill:#979797;font-family:'Source Code Pro';font-size:12px;font-weight:700;text-anchor:middle"><tspan id="tspan12341" x="53" y="20" style="fill:#f0f0f0">ruby_client</tspan></text>
   </g>
  </g>
 </g>
</svg>
